48x48/apps/samba.svg

<svg height="48" width="48" xmlns="http://www.w3.org/2000/svg"><path d="m24 4a20 20 0 0 0 -20 20 20 20 0 0 0 20 20 20 20 0 0 0 20-20 20 20 0 0 0 -20-20z" fill="#48aeff"/><path d="m4.021 24.418a20 20 0 0 0 -.021.582 20 20 0 0 0 20 20 20 20 0 0 0 20-20 20 20 0 0 0 -.021-.418 20 20 0 0 1 -19.979 19.418 20 20 0 0 1 -19.978-19.582z" opacity=".2"/><path d="m24 4a20 20 0 0 0 -20 20 20 20 0 0 0 .021.418 20 20 0 0 1 19.979-19.418 20 20 0 0 1 19.979 19.582 20 20 0 0 0 .02-.582 20 20 0 0 0 -19.999-20z" fill="#f4f4f7" opacity=".2"/><path d="m30 15c-1.108 0-2 .892-2 2v10h-2.67a1.33.99 0 0 0 -1.152 1.486l4.67 6.018a1.33.99 0 0 0 1.08.494 1.33.99 0 0 0 1.224-.494l4.67-6.018a1.33.99 0 0 0 -1.152-1.486h-2.67v-10c0-1.108-.892-2-2-2zm-12.072.002a1.33.99 0 0 0 -1.08.494l-4.67 6.018a1.33.99 0 0 0 1.152 1.486h2.67v10c0 1.108.892 2 2 2s2-.892 2-2v-10h2.67a1.33.99 0 0 0 1.152-1.486l-4.67-6.018a1.33.99 0 0 0 -1.224-.494z" opacity=".2"/><g fill="#f4f4f7"><g transform="translate(0 -2)"><rect height="18" ry="2" width="4" x="16" y="18"/><path d="m17.929 16.001a1.33.99 0 0 0 -1.081.494l-4.67 6.02a1.33.99 0 0 0 1.153 1.485h9.338a1.33.99 0 0 0 1.153-1.486l-4.67-6.019a1.33.99 0 0 0 -1.223-.494z"/></g><g transform="matrix(1 0 0 -1 12 50)"><rect height="18" ry="2" width="4" x="16" y="18"/><path d="m17.929 16.001a1.33.99 0 0 0 -1.081.494l-4.67 6.02a1.33.99 0 0 0 1.153 1.485h9.338a1.33.99 0 0 0 1.153-1.486l-4.67-6.019a1.33.99 0 0 0 -1.223-.494z"/></g></g></svg>

<svg height="48" width="48" xmlns="http://www.w3.org/2000/svg">
    <path d="M24 4A20 20 0 0 0 4 24a20 20 0 0 0 20 20 20 20 0 0 0 20-20A20 20 0 0 0 24 4z" fill="#48aeff"/>
    <path d="M4.021 24.418A20 20 0 0 0 4 25a20 20 0 0 0 20 20 20 20 0 0 0 20-20 20 20 0 0 0-.021-.418A20 20 0 0 1 24 44 20 20 0 0 1 4.022 24.418z" opacity=".2"/>
    <path d="M24 4A20 20 0 0 0 4 24a20 20 0 0 0 .021.418A20 20 0 0 1 24 5a20 20 0 0 1 19.979 19.582 20 20 0 0 0 .02-.582A20 20 0 0 0 24 4z" fill="#f4f4f7" opacity=".2"/>
    <path d="M30 15c-1.108 0-2 .892-2 2v10h-2.67a1.33.99 0 0 0-1.152 1.486l4.67 6.018a1.33.99 0 0 0 1.08.494 1.33.99 0 0 0 1.224-.494l4.67-6.018A1.33.99 0 0 0 34.67 27H32V17c0-1.108-.892-2-2-2zm-12.072.002a1.33.99 0 0 0-1.08.494l-4.67 6.018A1.33.99 0 0 0 13.33 23H16v10c0 1.108.892 2 2 2s2-.892 2-2V23h2.67a1.33.99 0 0 0 1.152-1.486l-4.67-6.018a1.33.99 0 0 0-1.224-.494z" opacity=".2"/>
    <g fill="#f4f4f7">
        <g transform="translate(0 -2)">
            <rect height="18" ry="2" width="4" x="16" y="18"/>
            <path d="M17.929 16.001a1.33.99 0 0 0-1.081.494l-4.67 6.02A1.33.99 0 0 0 13.331 24h9.338a1.33.99 0 0 0 1.153-1.486l-4.67-6.019a1.33.99 0 0 0-1.223-.494z"/>
        </g>
        <g transform="matrix(1 0 0 -1 12 50)">
            <rect height="18" ry="2" width="4" x="16" y="18"/>
            <path d="M17.929 16.001a1.33.99 0 0 0-1.081.494l-4.67 6.02A1.33.99 0 0 0 13.331 24h9.338a1.33.99 0 0 0 1.153-1.486l-4.67-6.019a1.33.99 0 0 0-1.223-.494z"/>
        </g>
    </g>
</svg>
